svgs/duotone/coin.svg

<svg xmlns="http://www.w3.org/2000/svg" viewBox="0 0 512 512"><!-- Font Awesome Pro 6.0.0-alpha2 by @fontawesome - https://fontawesome.com License - https://fontawesome.com/license (Commercial License) --><defs><style>.fa-secondary{opacity:.4}</style></defs><path d="M512 208C512 287.5 397.375 352 256 352S0 287.5 0 208S114.625 64 256 64S512 128.5 512 208Z" class="fa-secondary"/><path d="M0 320C0 347.75 17.999 373.375 48 394.375V330C29.125 318 12.625 304.625 0 289.625V320ZM80 412.5C107.125 425.375 139.625 435.375 176 441.25V377C140.625 371 108.25 361.125 80 348V412.5ZM464 330V394.375C493.999 373.375 512 347.75 512 320V289.625C499.375 304.625 482.875 318 464 330ZM336 441.375C372.375 435.375 404.875 425.375 432 412.5V348C403.75 361.125 371.375 371 336 377V441.375ZM208 381.25V445.25C223.625 446.75 239.5 448 256 448S288.375 446.75 304 445.25V381.25C288 383 272 383.875 256 384C240 383.875 224 383 208 381.25Z" class="fa-primary"/></svg>

<svg xmlns="http://www.w3.org/2000/svg" viewBox="0 0 512 512"><!-- Font Awesome Pro 5.15.1 by @fontawesome - https://fontawesome.com License - https://fontawesome.com/license (Commercial License) --><defs><style>.fa-secondary{opacity:.4}</style></defs><path d="M0 208C0 128.44 114.67 64 256 64s256 64.44 256 144-114.67 144-256 144S0 287.56 0 208z" class="fa-secondary"/><path d="M0 320c0 27.77 18 53.37 48 74.33V330c-18.85-12-35.4-25.36-48-40.38zm80 92.51c27.09 12.89 59.66 22.81 96 28.8V377c-35.39-6-67.81-15.88-96-29zM464 330v64.32c30.05-21 48-46.56 48-74.33v-30.36C499.4 304.65 482.85 318 464 330zM336 441.31c36.34-6 68.91-15.91 96-28.8V348c-28.19 13.12-60.61 23-96 29zM208 381.2v64.09c15.62 1.51 31.49 2.71 48 2.71s32.38-1.2 48-2.71V381.2a477.2 477.2 0 0 1-48 2.8 477.2 477.2 0 0 1-48-2.8z" class="fa-primary"/></svg>
